icons/chevrons-left.svg

<svg width="24" height="24" viewBox="0 0 24 24" fill="none" xmlns="http://www.w3.org/2000/svg">
<path fill-rule="evenodd" clip-rule="evenodd" d="M11.7071 6.29289C12.0976 6.68342 12.0976 7.31658 11.7071 7.70711L7.41421 12L11.7071 16.2929C12.0976 16.6834 12.0976 17.3166 11.7071 17.7071C11.3166 18.0976 10.6834 18.0976 10.2929 17.7071L5.29289 12.7071C4.90237 12.3166 4.90237 11.6834 5.29289 11.2929L10.2929 6.29289C10.6834 5.90237 11.3166 5.90237 11.7071 6.29289ZM18.7071 6.29289C19.0976 6.68342 19.0976 7.31658 18.7071 7.70711L14.4142 12L18.7071 16.2929C19.0976 16.6834 19.0976 17.3166 18.7071 17.7071C18.3166 18.0976 17.6834 18.0976 17.2929 17.7071L12.2929 12.7071C12.1054 12.5196 12 12.2652 12 12C12 11.7348 12.1054 11.4804 12.2929 11.2929L17.2929 6.29289C17.6834 5.90237 18.3166 5.90237 18.7071 6.29289Z" fill="black"/>
</svg>

<svg
  width="24"
  height="24"
  viewBox="0 0 24 24"
  xmlns="http://www.w3.org/2000/svg"
>
  <path
    fill-rule="evenodd"
    clip-rule="evenodd"
    d="M11.707 6.293a1 1 0 0 1 0 1.414L7.414 12l4.293 4.293a1 1 0 0 1-1.414 1.414l-5-5a1 1 0 0 1 0-1.414l5-5a1 1 0 0 1 1.414 0zm7 0a1 1 0 0 1 0 1.414L14.414 12l4.293 4.293a1 1 0 0 1-1.414 1.414l-5-5a1 1 0 0 1 0-1.414l5-5a1 1 0 0 1 1.414 0z"
  />
</svg>
